symbols/web/battery_4_bar/materialsymbolsoutlined/battery_4_bar_48px.svg

<svg xmlns="http://www.w3.org/2000/svg" height="48" width="48"><path d="M15.5 44q-.65 0-1.075-.425Q14 43.15 14 42.5V8.7q0-.65.425-1.075Q14.85 7.2 15.5 7.2H20V4h8v3.2h4.5q.65 0 1.075.425Q34 8.05 34 8.7v33.8q0 .65-.425 1.075Q33.15 44 32.5 44ZM17 23.4h14V10.2H17Z"/></svg>

<svg xmlns="http://www.w3.org/2000/svg" height="48" width="48"><path d="M15.5 44Q14.85 44 14.425 43.575Q14 43.15 14 42.5V8.7Q14 8.05 14.425 7.625Q14.85 7.2 15.5 7.2H20V4H28V7.2H32.5Q33.15 7.2 33.575 7.625Q34 8.05 34 8.7V42.5Q34 43.15 33.575 43.575Q33.15 44 32.5 44ZM17 23.4H31V10.2H17Z"/></svg>
